X:1
T: Captain O'Kain
C:
R:Jig
Q:180
K:Gm
M:6/8
L:1/16
|:GF|D2G2A2 B4AG|ABcBAG F2G2A2|B2d2B2 dcBAG^F|D2G2G2 G4GF|
D2G2A2 B4AG|ABcBAG F2G2A2|B2d2B2 dcBAG^F|D2G2G2 G4GA|
Bcd2d2 d4cB|ABc2c2 c4f=e|d2g2^f2 g2a2b2|d2g2^f2 g4ga|
b2a2g2 f2e2d2|dcBAf2 F2G2A2|B2d2B2 dcBAG^F|D2G2G2 G4:|
